optimized/20/solid/inbox-stack.svg

<svg xmlns="http://www.w3.org/2000/svg" viewBox="0 0 20 20">
  <path fill-rule="evenodd" d="M1.04461 6.95375C1.08721 6.72011 1.16003 6.49228 1.26175 6.27613L2.53096 3.57906C2.98454 2.6152 3.95396 2 5.01921 2H14.9808C16.046 2 17.0155 2.6152 17.469 3.57906L18.7383 6.27613C18.84 6.49228 18.9128 6.72011 18.9554 6.95375C18.9844 7.04736 19 7.14686 19 7.25V8.75C19 10.2688 17.7688 11.5 16.25 11.5H3.75C2.23122 11.5 1 10.2688 1 8.75V7.25C1 7.14686 1.01562 7.04736 1.04461 6.95375ZM3.88819 4.21775C4.09436 3.77964 4.53501 3.5 5.01921 3.5H14.9808C15.465 3.5 15.9056 3.77964 16.1118 4.21775L17.0682 6.25H14C13.6471 6.25 13.3203 6.43601 13.1401 6.73946L12.5339 7.76054C12.3537 8.06399 12.0269 8.25 11.674 8.25H8.23607C7.8573 8.25 7.51103 8.036 7.34164 7.69721L6.89443 6.80279C6.72504 6.464 6.37877 6.25 6 6.25H2.93184L3.88819 4.21775Z" clip-rule="evenodd"/>
  <path d="M1 14C1 13.4477 1.44772 13 2 13H6C6.37877 13 6.72504 13.214 6.89443 13.5528L7.34164 14.4472C7.51103 14.786 7.8573 15 8.23607 15H11.674C12.0269 15 12.3537 14.814 12.5339 14.5105L13.1401 13.4895C13.3203 13.186 13.6471 13 14 13H18C18.5523 13 19 13.4477 19 14V16C19 17.1046 18.1046 18 17 18H3C1.89543 18 1 17.1046 1 16V14Z"/>
</svg>

<svg xmlns="http://www.w3.org/2000/svg" viewBox="0 0 20 20" fill="currentColor" aria-hidden="true">
  <path fill-rule="evenodd" d="M1.045 6.954a2.75 2.75 0 01.217-.678L2.53 3.58A2.75 2.75 0 015.019 2h9.962a2.75 2.75 0 012.488 1.58l1.27 2.696c.101.216.174.444.216.678A1 1 0 0119 7.25v1.5a2.75 2.75 0 01-2.75 2.75H3.75A2.75 2.75 0 011 8.75v-1.5a1 1 0 01.045-.296zm2.843-2.736A1.25 1.25 0 015.02 3.5h9.962c.484 0 .925.28 1.13.718l.957 2.032H14a1 1 0 00-.86.49l-.606 1.02a1 1 0 01-.86.49H8.236a1 1 0 01-.894-.553l-.448-.894A1 1 0 006 6.25H2.932l.956-2.032z" clip-rule="evenodd"/>
  <path d="M1 14a1 1 0 011-1h4a1 1 0 01.894.553l.448.894a1 1 0 00.894.553h3.438a1 1 0 00.86-.49l.606-1.02A1 1 0 0114 13h4a1 1 0 011 1v2a2 2 0 01-2 2H3a2 2 0 01-2-2v-2z"/>
</svg>
